X:1
T:صقور الأرض
T:صقور الأرض
T:طارق العربي
T:نهاوند الدو
C:طارق العربي
Z:نهاوند الدو
L:1/8
M:4/4
K:Eb
V:1 treble nm="Piano" snm="Pno."
V:1
 G,/A,/ G,3 z2 B,2 | C2 z2 C/D/E/F/ G2 | EDCB, G,4 | G,2 B,D"^تدوين : حسان حسن" C4 | CEDC B,G,B,D | %5
 C8 | GFED D4 | D2 EF E4 | EGFE DG,B,D | C8 |: %10
"^شـــــرف الـــوطن" EEDC G2 z"^اغـــــــــلى مــــنا ومــن" E | E3/2FDC/ G2 z"^ما" F | %12
"^قد يـــجول" .A>.A G"^بـــــــــــــــــذكرنا"F .AAGF | %13
"^فــــــي" AA"^أي زمـــــــــــن" B>c G4 :| %14
"^شـــــرف الـــوطن" GGGG G2"^هـــو أرضـــــــــــي" FG | A2 A6 | %16
"^شـــــرف الـــوطن" GGGG"^قـــــــبلي وبـــــعدي" GA F>G | A2 A6 | %18
"^شـــــرف الـــوطن" GGGG G"^مرآة مــــــــــــــــــجدي"A F>G | A2 A4- AF | %20
"^ســــــــيفي ورمـــــــــحي في وجه المــــحن" F>G E>F GF E>D | C8 |: %22
"^شـــــرف الـــوطن" EEDC G2 z"^اغـــــــــلى مــــنا ومــن" E | E3/2FDC/ G2 z"^ما" F | %24
"^قد يـــجول" .A>.A GF"^بـــــــــــــــــذكرنا" .AAGF |1 %25
"^فــــــي" AA"^أي زمـــــــــــن" B>c G4 :|2"^فــــــي" AA"^أي زمـــــــــــن" B>c G3 G || %27
"^تـــــــــــــــــعاهدنا" G2 d2 c3 G |"^تـــــــــــــــــعاهدنا" G2 d2 c3 A | %29
"^تـــــــــــــــــعاهدنا" A2 e2 d3"^تـــــــــــــــــعاهدنا" A | %30
 A2 e2 d3"^تــــــــــــعاهدنا" c | c2"^معا" c2 c>"^على"d Bc | %32
"^الاخـــــلاص والاخــــــــاء" d>c B>A G3"^تــــــــــــعاهدنا" c | c2 c2"^غدا ســــنعلي" c>d Bc | %34
"^رايــــــــــــة الفـــــــــداء" d>c B>A G3"^عهدا بـــــــــــــأن نكون" G | %35
 G>A F>G"^أقـــوى" A3 A | %36
"^مـــــــــن الحــــــــصون" A>B G>A B3"^ارواحـــــــــنا فـــــــدا الــــــــــــــوطن" B | %37
 B>B B>B B>B B>"^رخـــــــيصة الثــمن"B | GGde c4 |:"^شـــــرف الـــوطن" EEDC G2 z E | %40
"^اغـــــــــلى مــــنا ومــن" E3/2FDC/ G2 z"^ما" F | %41
"^قد يـــجول" .A>.A GF"^بـــــــــــــــــذكرنا" .AAGF | %42
"^فــــــي" AA"^أي زمـــــــــــن" B>c G4 :| G,/A,/ G,2"^صقور الأرض" B B2 B2 | c2 z2 C/D/E/F/ G2 | %45
 G,8 |] %46

